X:16
T:Jeff City
G:Key: G
M:C|
O:from Bill Katon
N:I think most people play this with the parts in the other order. I like it this way.
S:Caleb Klauder Country Band, Subdued Stringband Jamboree 2015
Z:abc-transcription Josh Larios <hades@elsewhere.org>, 2017.02.14
Z:abc-copyright This transcription is licensed under a Creative Commons Attribution-ShareAlike 4.0 International License.
K:G
[P:A]y0|: "G"{B}d2-dd d2 dd | BAGB "C"AGEG | "G"D2 DD DEGA | "C"BAGB "D"AGGA | 
| "G"{B}d2-dd d2 dd | BAGB "C"AGEG | "G"D2 DD DEGA | "D"BdAF "G"G2A2 :| 
[P:B]y|: "G"Bd-d2 g4 | "D"a4 "G"b4 | "C"agef g2 ge | "G"dged "D"BA G2 |  
| "G"Bd-d2 g4 | "D"a4 "G"b4 | "C"agef g2 ge | "D"dBAF "G"G4 :| 

